!!!!SEGMENT: pl-cz--ii-87--001-004_zientarski-romuald-teodor--msza-swieta-credo.krn
!!!cenid: 18xx:1165
!!!COM: Zientarski, Romuald Teodor
!!!COM-rismid: pe30001080
!!!CDT: ~1830-1874
!!!CNT: Polish
!!!OPR: Msza Święta
!!!OTL: Credo
!!!OMV: 004
!!!PDT: 1888
!!!AGN: Sacred; Mass
!!!SMS-siglum: PL-CZ
!!!SMS-shelfmark: II-87
!!!SMS-shelfwork: 001-004 M
!!!SMS-variant:
!!!SMS-altvar:
!!!NIFC-rismid: 300033224
!!!URL-scan: http://repozytorium.nifc.pl/skany/pl-cz-nut--ii-87
!!!ONB-nifc: UWAGA: części Mszy: Kyrie, Gloria, Graduale, Credo, Et incarnatus, Et resurrexit, Offertorium, Sanctus, Benedictus, Agnus Dei, Benedictio
!!!OMD: Allegretto.
!!!key: g
**kern	**kern	**dynam	**kern	**text	**dynam
*part3	*part2	*part2	*part1	*part1	*part1
*staff3	*staff2	*	*staff1	*staff1	*
*I"[Organo]	*	*	*I"[Voice]	*	*
*Iorgan	*	*	*Ivox	*	*
*ICklav	*	*	*ICvox	*	*
*IGacmp	*	*	*IGsolo	*	*
*clefF4	*clefG2	*	*clefG2	*	*
*k[b-e-]	*k[b-e-]	*	*k[b-e-]	*	*
*g:	*g:	*	*g:	*	*
*M4/4	*M4/4	*	*M4/4	*	*
*met(c)	*met(c)	*	*met(c)	*	*
=1	=1	=1	=1	=1	=1
!	!	!LO:DY:rj:t=f.	!	!	!LO:DY:b:rj:t=f.
4G 4D 4BB- 4GG/	4gg 4dd 4b- 4g\	f	4r	.	f
4G 4E- 4C 4GG/	(>4gg 4ee- 4cc 4g\	.	4g/	Wie-	.
(>8GL 8D 8BB- 8GG\	8ggL 8dd 8b- 8g\	.	(<8g/L	-rży-	.
!LO:SIC:v:s=8F#\	!	!	!	!	!
8F\	8ff#XJ 8f#X\	.	8f#X/J)	.	.
8G\	8ggL 8g\	.	(<8g/L	-my	.
8A\J)	8aaJ 8a\)	.	8a/J)	.	.
=2	=2	=2	=2	=2	=2
2B-\	2bb- 2b-\	.	2b-\	w_Bo-	.
(>8G\L	(<8ggL 8g/	.	4g/	-ga	.
8E-\	8ee- 8e-/	.	.	.	.
8D\	8dd 8d/	.	4r	.	.
[>8C\J)	8ccJ 8c/)	.	.	.	.
=3	=3	=3	=3	=3	=3
*	*^	*	*	*	*
2C] 2CC/	4.b-/	2e- 2c\	.	(<4.b-/	co	.
.	8a/	.	.	8a/)	.	.
2D 2DD/	4g 4d 4B-/	2ryy	.	4g/	Swia-	.
.	4f#X 4d 4c/	.	.	4f#X/	-ty	.
*	*v	*v	*	*	*	*
=4	=4	=4	=4	=4	=4
2D 2GG/	2g 2B-/	.	2g/	two-	.
4G 4GG/	4g 4B-/	.	4g/	-rży	.
4r	4r	ff	4r	.	.
.	.	.	.	.	ff
=5	=5	=5	=5	=5	=5
4B- 4F 4D-X 4BB-\	4bb- 4ff 4dd-X 4b-\	.	4b-\	Wie-	.
!LO:SIC:v:n=2:s=4G-	!	!	!	!	!
4B- 4G 4E- 4BB-\	4bb- 4gg-X 4ee- 4b-\	.	8b-\	-rżym	.
.	.	.	8b-\	że	.
8B-L 8F 8D- 8BB-\	(>8bb-L 8ff 8dd-X 8b-\	.	(>8b-\L	Chrys-	.
8A\	8aa 8a\	.	8a\J)	.	.
8B-\	8bb- 8b-\	.	(>8b-\L	-tus	.
8c\J	8cccJ 8cc\)	.	8cc\J)	.	.
!!LO:LB:g=original
=6	=6	=6	=6	=6	=6
2d-X\	2ddd-X 2dd-X\	.	2dd-X\	pra-	.
4B-\	8bb-L 8b-\	.	4b-\	-wy	.
.	8bb- 8b-\	.	.	.	.
!LO:SIC:v:s=8G-\L	!	!	!	!	!
8G\L	8gg-X 8g-X\	.	4r	.	.
!LO:SIC:v:s=8F\J	!	!	!	!	!
8F-X\J	8ffJ 8f\	.	.	.	.
=7	=7	=7	=7	=7	=7
(<[>1F 1FF	(<4.ddn 4.b- 4.f/	.	4.ddn^\	Chrys-	.
.	8cc 8a 8e-/	.	8cc\	-tus	.
.	4b- 4f 4d/	.	(<4b-/	Syn	.
.	4a 4e- 4c/)	.	4a/)	.	.
=8	=8	=8	=8	=8	=8
2F] 2BB-\)	2b- 2d/	.	2b-\	Bo-	.
4B- 4BB-\	4b- 4f 4d/	.	4b-\	-ży	.
!	!	!	!	!	!LO:DY:b
4r	8r	mf	8r	.	mf
!	!	!	!LO:TX:a:t=dol	!	!
.	8dd 8b-\	.	8dd\	By	.
=9	=9	=9	=9	=9	=9
*^	*^	*	*	*	*
2.d/	1G	2.gg 2.b-/	1g	.	2.gg^\	ze-	.
4B-/	.	4dd/	.	.	4dd\	-trzeć	.
=10	=10	=10	=10	=10	=10	=10	=10
2c/	(>4c\	2ee-/	2g 2e-\	.	2ee-\	gło-	.
.	4C\)	.	.	.	.	.	.
(>4.A/	2D\	(>4.dd (<4.f#X/	2d\	.	4dd\	-wę	.
.	.	.	.	.	8r	.	.
8F#X/)	.	8cc) 8a/)	.	.	8cc\	pie-	.
=11	=11	=11	=11	=11	=11	=11	=11
*	*	*	*^	*	*	*	*
(>4G\	2ryy	(>4.b-/	2g 2d\	2ryy	.	[>4.b-\	-kiel-	.
4F\)	.	.	.	.	.	.	.	.
.	.	8b-/	.	.	.	8b-\]	.	.
!LO:S:s=1:note:problem:note-level slur	!	!	!	!	!	!	!	!
&(<2E-/	4E-\	4b-/	2g\	4ryy	.	(>4b-\	-nej	.
.	(>4A (<4AA\	4cc/)	.	4c\	.	4cc\)	.	.
*	*	*v	*v	*v	*	*	*	*
=12	=12	=12	=12	=12	=12	=12
2A) 2D\)&)	2ryy	[>2dd [>2f#X [<2d/	.	2dd\	zmi-	.
*	*Xtuplet	*	*	*	*	*
!LO:N:vis=4	!LO:N:vis=16%3	!	!	!	!	!
4.r;	64%3D\LL	8dd] 8f#] 8d/]	.	4dd\	-i	.
!	!LO:N:vis=16%3	!	!	!	!	!
.	64%3E-\	.	.	.	.	.
!	!LO:N:vis=16%3	!	!	!	!	!
.	64%3D\	.	.	.	.	.
.	.	8r	.	.	.	.
!	!LO:N:vis=16%3	!	!	!	!	!
.	64%3C#X\	.	.	.	.	.
!	!LO:N:vis=16%3	!	!	!	!	!
.	64%3D\	.	.	.	.	.
!	!LO:N:vis=16%3	!	!	!	!	!
.	64%3Cn\	.	.	.	.	.
.	.	8r;	.	8r;	.	.
!	!LO:N:vis=16%3	!	!	!	!	!
.	64%3BB-\	.	.	.	.	.
!	!LO:N:vis=16%3	!	!	!	!	!
.	64%3AA\JJ	.	.	.	.	.
!	!	!LO:TX:t=P:problem:przerywana kreska do 8GG lewej ręki	!	!LO:N:vis=4	!	!
8ryy	8GG/	8dd 8b-\	.	8dd\	Na	.
!!LO:LB:g=original
=13	=13	=13	=13	=13	=13	=13
*	*	*^	*	*	*	*
!	!	!	!	!LO:DY:rj	!	!	!LO:DY:b:rj
2.d/	1G	2.gg 2.b-/	1g	f	2.gg\	zie-	f
4B-/	.	4dd/	.	.	4dd\	-mię	.
=14	=14	=14	=14	=14	=14	=14	=14
2c\	(>4c\	2ee- 2g 2e-/	2ryy	.	(>2ee-\	przy-	.
.	4C\)	.	.	.	.	.	.
(>4A/	2D\	(>4dd (<4f#X/	2d\	.	4dd\	.	.
4F#X/)	.	4cc) 4a/)	.	.	4cc\)	-szedł	.
=15	=15	=15	=15	=15	=15	=15	=15
2ryy	(>4G\	8b- 8g/	4d\	.	(>4b-\	z_ło-	.
.	.	8r	.	.	.	.	.
.	4E-\)	(<8dd/L	4g\	.	8dd\L	.	.
.	.	8cc/J)	.	.	8cc\J)	.	.
!LO:TX:a:t=riter.	!	!	!	!	!LO:TX:a:t=riter.	!	!
2D/	(<4D\	4b- 4g 4d/	4ryy	.	4b-\	-na	.
.	4DD\)	8a/L	8gL 8d\	.	(>8a\L	Ma-	.
.	.	8b-/J	8f#XJ 8c\	.	8b-\J)	.	.
*	*	*v	*v	*	*	*	*
=16	=16	=16	=16	=16	=16	=16
2D/	2GG\	2g 2B-/	.	2g/	-ri-	.
(>4G (<4GG/	2ryy	(>4g 4d [<4B-/	.	4g/	-i.	.
4F) 4FF;</)	.	4a-X 4d 4B-;/])	.	4r;	.	.
*v	*v	*	*	*	*	*
==	==	==	==	==	==
*-	*-	*-	*-	*-	*-
!!!system-decoration: <s1>(s2,s3)
!!!RDF**kern: > = above
!!!RDF**kern: < = below
!!!AIN: 1 organ 1 vox
!!!ENC:
!!!END: 2020-11-07
!!!ENC: Andrzej Kubiczek
!!!END: 2021-11-14
